actions/16/appointment-new.svg

<?xml version="1.0" encoding="UTF-8" standalone="no"?>
<!-- Created with Inkscape (http://www.inkscape.org/) -->

<svg
   xmlns:dc="http://purl.org/dc/elements/1.1/"
   xmlns:cc="http://creativecommons.org/ns#"
   xmlns:rdf="http://www.w3.org/1999/02/22-rdf-syntax-ns#"
   xmlns:svg="http://www.w3.org/2000/svg"
   xmlns="http://www.w3.org/2000/svg"
   xmlns:xlink="http://www.w3.org/1999/xlink"
   xmlns:inkscape="http://www.inkscape.org/namespaces/inkscape"
   version="1.0"
   width="16"
   height="16"
   id="svg3591">
  <metadata
     id="metadata29">
    <rdf:RDF>
      <cc:Work
         rdf:about="">
        <dc:format>image/svg+xml</dc:format>
        <dc:type
           rdf:resource="http://purl.org/dc/dcmitype/StillImage" />
      </cc:Work>
    </rdf:RDF>
  </metadata>
  <defs
     id="defs3593">
    <linearGradient
       id="linearGradient5354">
      <stop
         id="stop5356"
         style="stop-color:#3f3f3f;stop-opacity:1"
         offset="0" />
      <stop
         id="stop5358"
         style="stop-color:#000000;stop-opacity:1"
         offset="1" />
    </linearGradient>
    <linearGradient
       x1="14.952554"
       y1="45.380947"
       x2="14.952554"
       y2="13.214291"
       id="linearGradient3738"
       xlink:href="#linearGradient5354"
       gradientUnits="userSpaceOnUse"
       gradientTransform="matrix(0.3687583,0,0,0.3687582,-0.8509981,-0.8513743)" />
    <linearGradient
       id="linearGradient2145">
      <stop
         id="stop2147"
         style="stop-color:#fffffd;stop-opacity:1"
         offset="0" />
      <stop
         id="stop2149"
         style="stop-color:#cbcbc9;stop-opacity:1"
         offset="1" />
    </linearGradient>
    <linearGradient
       x1="28.771276"
       y1="12.91806"
       x2="28.771276"
       y2="45.347591"
       id="linearGradient3736"
       xlink:href="#linearGradient2145"
       gradientUnits="userSpaceOnUse"
       gradientTransform="matrix(0.3687583,0,0,0.3687582,-0.8509981,-0.8513743)" />
    <linearGradient
       id="linearGradient37935">
      <stop
         id="stop37937"
         style="stop-color:#929292;stop-opacity:1"
         offset="0" />
      <stop
         id="stop37939"
         style="stop-color:#4a4a4a;stop-opacity:1"
         offset="1" />
    </linearGradient>
    <linearGradient
       x1="63.761036"
       y1="-12.929285"
       x2="63.761036"
       y2="5.9721518"
       id="linearGradient3630"
       xlink:href="#linearGradient37935"
       gradientUnits="userSpaceOnUse"
       gradientTransform="matrix(0.7432395,0,0,0.7432223,-38.22979,10.609333)" />
    <linearGradient
       id="linearGradient3945">
      <stop
         id="stop3567"
         style="stop-color:#ecf5b6;stop-opacity:1"
         offset="0" />
      <stop
         id="stop3949"
         style="stop-color:#9fba48;stop-opacity:1"
         offset="1" />
    </linearGradient>
    <linearGradient
       x1="24.103895"
       y1="15.168831"
       x2="24.103895"
       y2="32.485161"
       id="linearGradient3578"
       xlink:href="#linearGradient3945"
       gradientUnits="userSpaceOnUse"
       gradientTransform="matrix(0.3280315,0,0,0.3257096,4.4449582,4.5320244)" />
  </defs>
  <g
     id="layer1">
    <path
       d="m 7.9941083,0.4999771 c -4.139303,0 -7.4941309,3.3548271 -7.4941309,7.4941318 0,4.1393031 3.3548279,7.5059141 7.4941309,7.5059141 4.1393027,0 7.5059187,-3.366611 7.5059147,-7.5059141 0,-4.1393047 -3.366612,-7.4941318 -7.5059147,-7.4941318 z"
       inkscape:connector-curvature="0"
       id="path2555"
       style="fill:url(#linearGradient3736);fill-opacity:1;stroke:url(#linearGradient3738);stroke-width:0.99994898;stroke-linecap:round;stroke-linejoin:round;stroke-miterlimit:4;stroke-opacity:1;stroke-dasharray:none;stroke-dashoffset:0" />
    <path
       d="M 14.5,7.9997699 C 14.5,11.589736 11.589638,14.5 8.0000814,14.5 4.4101986,14.5 1.5,11.589704 1.5,7.9997699 1.5,4.409969 4.4101986,1.5 8.0000814,1.5 11.589638,1.5 14.5,4.409969 14.5,7.9997699 l 0,0 z"
       inkscape:connector-curvature="0"
       id="path8655"
       style="opacity:0.52747258;fill:none;stroke:url(#linearGradient3630);stroke-width:1;stroke-miterlimit:4;stroke-opacity:1;stroke-dasharray:none" />
    <path
       d="M 7.674148,8.4713423 12.385363,3.7602338"
       inkscape:connector-curvature="0"
       id="path2312"
       style="fill:none;stroke:#000000;stroke-width:0.5;stroke-linecap:round;stroke-linejoin:miter;stroke-miterlimit:4;stroke-opacity:1;stroke-dasharray:none" />
    <path
       d="M 8.4390678,8.5061095 5.2924639,5.3595766"
       inkscape:connector-curvature="0"
       id="path2314"
       style="fill:none;stroke:#000000;stroke-width:0.5;stroke-linecap:round;stroke-linejoin:miter;stroke-miterlimit:4;stroke-opacity:1;stroke-dasharray:none" />
    <path
       d="M 7.7784559,8.2279635 13.143328,6.7904827"
       inkscape:connector-curvature="0"
       id="path2316"
       style="fill:#ff0000;fill-rule:evenodd;stroke:#ff0000;stroke-width:0.5;stroke-linecap:round;stroke-linejoin:miter;stroke-miterlimit:4;stroke-opacity:1;stroke-dasharray:none" />
    <path
       d="m 10.499998,10.5 0,-1.9924676 3,0 0,1.9924676 1.99247,0 0,3 -1.99247,0 0,1.992468 -3,0 0,-1.992468 -1.9924696,0 0,-3 1.9924696,0 z"
       inkscape:connector-curvature="0"
       id="path2262"
       style="fill:url(#linearGradient3578);fill-opacity:1;fill-rule:evenodd;stroke:#699536;stroke-width:1.01506352;stroke-linecap:butt;stroke-linejoin:round;stroke-miterlimit:4;stroke-opacity:1;stroke-dasharray:none;display:inline" />
  </g>
</svg>

<?xml version="1.0" encoding="UTF-8" standalone="no"?>
<!-- Created with Inkscape (http://www.inkscape.org/) -->
<svg
   xmlns:svg="http://www.w3.org/2000/svg"
   xmlns="http://www.w3.org/2000/svg"
   xmlns:xlink="http://www.w3.org/1999/xlink"
   version="1.0"
   width="16"
   height="16"
   id="svg3591">
  <defs
     id="defs3593">
    <linearGradient
       id="linearGradient5354">
      <stop
         id="stop5356"
         style="stop-color:#3f3f3f;stop-opacity:1"
         offset="0" />
      <stop
         id="stop5358"
         style="stop-color:#000000;stop-opacity:1"
         offset="1" />
    </linearGradient>
    <linearGradient
       x1="14.952554"
       y1="45.380947"
       x2="14.952554"
       y2="13.214291"
       id="linearGradient3738"
       xlink:href="#linearGradient5354"
       gradientUnits="userSpaceOnUse"
       gradientTransform="matrix(0.3687583,0,0,0.3687582,-0.8509981,-0.8513743)" />
    <linearGradient
       id="linearGradient2145">
      <stop
         id="stop2147"
         style="stop-color:#fffffd;stop-opacity:1"
         offset="0" />
      <stop
         id="stop2149"
         style="stop-color:#cbcbc9;stop-opacity:1"
         offset="1" />
    </linearGradient>
    <linearGradient
       x1="28.771276"
       y1="12.91806"
       x2="28.771276"
       y2="45.347591"
       id="linearGradient3736"
       xlink:href="#linearGradient2145"
       gradientUnits="userSpaceOnUse"
       gradientTransform="matrix(0.3687583,0,0,0.3687582,-0.8509981,-0.8513743)" />
    <linearGradient
       id="linearGradient37935">
      <stop
         id="stop37937"
         style="stop-color:#929292;stop-opacity:1"
         offset="0" />
      <stop
         id="stop37939"
         style="stop-color:#4a4a4a;stop-opacity:1"
         offset="1" />
    </linearGradient>
    <linearGradient
       x1="63.761036"
       y1="-12.929285"
       x2="63.761036"
       y2="5.9721518"
       id="linearGradient3630"
       xlink:href="#linearGradient37935"
       gradientUnits="userSpaceOnUse"
       gradientTransform="matrix(0.7432395,0,0,0.7432223,-38.22979,10.609333)" />
    <linearGradient
       id="linearGradient3945">
      <stop
         id="stop3567"
         style="stop-color:#ecf5b6;stop-opacity:1"
         offset="0" />
      <stop
         id="stop3949"
         style="stop-color:#9fba48;stop-opacity:1"
         offset="1" />
    </linearGradient>
    <linearGradient
       x1="24.103895"
       y1="15.168831"
       x2="24.103895"
       y2="32.485161"
       id="linearGradient3578"
       xlink:href="#linearGradient3945"
       gradientUnits="userSpaceOnUse"
       gradientTransform="matrix(0.3280315,0,0,0.3257096,4.4449582,4.5320244)" />
  </defs>
  <g
     id="layer1">
    <path
       d="M 7.9941083,0.4999771 C 3.8548053,0.4999771 0.4999774,3.8548042 0.4999774,7.9941089 C 0.4999774,12.133412 3.8548053,15.500023 7.9941083,15.500023 C 12.133411,15.500023 15.500027,12.133412 15.500023,7.9941089 C 15.500023,3.8548042 12.133411,0.4999771 7.9941083,0.4999771 z"
       id="path2555"
       style="fill:url(#linearGradient3736);fill-opacity:1;stroke:url(#linearGradient3738);stroke-width:0.99994898;stroke-linecap:round;stroke-linejoin:round;stroke-miterlimit:4;stroke-dasharray:none;stroke-dashoffset:0;stroke-opacity:1" />
    <path
       d="M 14.5,7.9997699 C 14.5,11.589736 11.589638,14.5 8.0000814,14.5 C 4.4101986,14.5 1.5,11.589704 1.5,7.9997699 C 1.5,4.409969 4.4101986,1.5 8.0000814,1.5 C 11.589638,1.5 14.5,4.409969 14.5,7.9997699 L 14.5,7.9997699 z"
       id="path8655"
       style="opacity:0.52747258;fill:none;fill-opacity:1;fill-rule:nonzero;stroke:url(#linearGradient3630);stroke-width:1;stroke-miterlimit:4;stroke-dasharray:none;stroke-opacity:1" />
    <path
       d="M 7.674148,8.4713423 L 12.385363,3.7602338"
       id="path2312"
       style="fill:none;fill-rule:evenodd;stroke:#000000;stroke-width:0.5;stroke-linecap:round;stroke-linejoin:miter;stroke-miterlimit:4;stroke-dasharray:none;stroke-opacity:1" />
    <path
       d="M 8.4390678,8.5061095 L 5.2924639,5.3595766"
       id="path2314"
       style="fill:none;fill-rule:evenodd;stroke:#000000;stroke-width:0.5;stroke-linecap:round;stroke-linejoin:miter;stroke-miterlimit:4;stroke-dasharray:none;stroke-opacity:1" />
    <path
       d="M 7.7784559,8.2279635 L 13.143328,6.7904827"
       id="path2316"
       style="fill:#ff0000;fill-rule:evenodd;stroke:#ff0000;stroke-width:0.5;stroke-linecap:round;stroke-linejoin:miter;stroke-miterlimit:4;stroke-dasharray:none;stroke-opacity:1" />
    <path
       d="M 10.499998,10.5 L 10.499998,8.5075324 L 13.499998,8.5075324 L 13.499998,10.5 L 15.492468,10.5 L 15.492468,13.5 L 13.499998,13.5 L 13.499998,15.492468 L 10.499998,15.492468 L 10.499998,13.5 L 8.5075284,13.5 L 8.5075284,10.5 L 10.499998,10.5 z"
       id="path2262"
       style="fill:url(#linearGradient3578);fill-opacity:1;fill-rule:evenodd;stroke:#699536;stroke-width:1.01506352;stroke-linecap:butt;stroke-linejoin:round;stroke-miterlimit:4;stroke-dasharray:none;stroke-opacity:1;display:inline" />
  </g>
</svg>
